
startshape carpet
CF::Background = [ b -1 ]

shape carpet {
	SQUARE [ s 1 b 1 ]
	carpet [ s (1/3) y -1 ]
	carpet [ s (1/3) y -1 x -1 ]
	carpet [ s (1/3) y -1 x 1 ]
	carpet [ s (1/3) x -1 ]
	carpet [ s (1/3) x 1 ]
	carpet [ s (1/3) y 1 x -1 ]
	carpet [ s (1/3) y 1 x 1 ]
	carpet [ s (1/3) y 1 ]
}
